packages/vapor/resources/icons/svg/source-database.svg

<svg enable-background="new 0 0 64 64" viewBox="0 0 64 64"><path d="m60 0h-56c-2.2 0-4 1.8-4 4v56c0 2.2 1.8 4 4 4h56c2.2 0 4-1.8 4-4v-56c0-2.2-1.8-4-4-4" fill="#1f263f"/><path d="m32.2 13c-8.6 0-17.2 2.2-17.2 6.4v25.2c0 4.2 8.6 6.4 17.2 6.4s17.2-2.2 17.2-6.4v-25.2c0-4.2-8.6-6.4-17.2-6.4zm15.2 19c0 1.8-5.8 4.4-15.2 4.4s-15.2-2.6-15.2-4.4v-9.5c3 2.1 9.1 3.2 15.2 3.2s12.2-1.1 15.2-3.2zm-15.2-17c9.3 0 15.2 2.6 15.2 4.4s-5.9 4.4-15.2 4.4-15.2-2.6-15.2-4.4 5.9-4.4 15.2-4.4zm0 34c-9.4 0-15.2-2.6-15.2-4.4v-9.4c3 2.1 9.1 3.2 15.2 3.2s12.2-1.1 15.2-3.2v9.5c0 1.7-5.8 4.3-15.2 4.3z" fill="#fff"/></svg>

<?xml version="1.0" encoding="utf-8"?>
<svg version="1.1" viewBox="0 0 64 64" style="enable-background:new 0 0 64 64;">
<path fill="#1F263F" d="M60,0H4C1.8,0,0,1.8,0,4v56c0,2.2,1.8,4,4,4h56c2.2,0,4-1.8,4-4V4C64,1.8,62.2,0,60,0"/>
<path fill="#FFFFFF" d="M32.2,13C23.6,13,15,15.2,15,19.4v25.2c0,4.2,8.6,6.4,17.2,6.4s17.2-2.2,17.2-6.4V19.4
	C49.4,15.2,40.8,13,32.2,13z M47.4,32c0,1.8-5.8,4.4-15.2,4.4S17,33.8,17,32v-9.5c3,2.1,9.1,3.2,15.2,3.2s12.2-1.1,15.2-3.2V32z
	 M32.2,15c9.3,0,15.2,2.6,15.2,4.4c0,1.8-5.9,4.4-15.2,4.4S17,21.2,17,19.4S22.9,15,32.2,15z M32.2,49C22.8,49,17,46.4,17,44.6v-9.4
	c3,2.1,9.1,3.2,15.2,3.2s12.2-1.1,15.2-3.2v9.5C47.4,46.4,41.6,49,32.2,49z"/>
</svg>
